images/sub_icon_w.svg

<svg enable-background="new 0 0 40 28" height="28" viewBox="0 0 40 28" width="40" xmlns="http://www.w3.org/2000/svg"><g fill="none" stroke="#fff" stroke-miterlimit="10" stroke-width="2"><path d="m34 17.25v5.17c0 2.53-1.95 4.58-4.37 4.58h-24.26c-2.42 0-4.37-2.05-4.37-4.58v-12.84c0-1.27.49-2.41 1.28-3.23.8-.84 1.88-1.35 3.09-1.35h18.71c-.69 1.17-1.08 2.55-1.08 4 0 4.06 3.05 7.43 6.98 7.93.33.05.67.07 1.02.07.45 0 .91-.04 1.33-.12.49-.08.96-.2 1.42-.37.09.47.17.74.25.74z" stroke-linecap="round" stroke-linejoin="round"/><path d="m1.49 5.9 15.75 14.18 7.66-7.13" stroke-linejoin="round"/><path d="m39 9c0 3.45-2.19 6.39-5.25 7.51-.46.17-.93.29-1.42.37-.42.08-.88.12-1.33.12-.35 0-.69-.02-1.02-.07-3.93-.5-6.98-3.87-6.98-7.93 0-1.45.39-2.83 1.08-4 1.39-2.39 3.96-4 6.92-4 4.41 0 8 3.59 8 8z"/><g stroke-linecap="round"><path d="m28.06 9h5.88"/><path d="m31 6.06v5.88"/></g></g></svg>

<?xml version="1.0" encoding="utf-8"?>
<!-- Generator: Adobe Adobe Illustrator 24.2.0, SVG Export Plug-In . SVG Version: 6.00 Build 0)  -->
<svg version="1.1" id="Layer_1" xmlns="http://www.w3.org/2000/svg" xmlns:xlink="http://www.w3.org/1999/xlink" x="0px" y="0px"
	 width="40px" height="28px" viewBox="0 0 40 28" style="enable-background:new 0 0 40 28;" xml:space="preserve">
<style type="text/css">
	.st0{fill:none;stroke:#FFFFFF;stroke-width:3;stroke-linecap:round;stroke-linejoin:round;stroke-miterlimit:10;}
	.st1{fill:#FFFFFF;}
	.st2{fill:none;stroke:#FFFFFF;stroke-width:3;stroke-miterlimit:10;}
	.st3{fill:none;stroke:#FFFFFF;stroke-width:2;stroke-linecap:round;stroke-linejoin:round;stroke-miterlimit:10;}
	.st4{fill:none;stroke:#FFFFFF;stroke-width:2;stroke-linejoin:round;stroke-miterlimit:10;}
	.st5{fill:none;stroke:#FFFFFF;stroke-width:2;stroke-miterlimit:10;}
	.st6{fill:none;stroke:#FFFFFF;stroke-width:2;stroke-linecap:round;stroke-miterlimit:10;}
</style>
<path class="st3" d="M34,17.25v5.17c0,2.53-1.95,4.58-4.37,4.58H5.37C2.95,27,1,24.95,1,22.42V9.58c0-1.27,0.49-2.41,1.28-3.23
	C3.08,5.51,4.16,5,5.37,5h18.71C23.39,6.17,23,7.55,23,9c0,4.06,3.05,7.43,6.98,7.93C30.31,16.98,30.65,17,31,17
	c0.45,0,0.91-0.04,1.33-0.12c0.49-0.08,0.96-0.2,1.42-0.37C33.84,16.98,33.92,17.25,34,17.25z"/>
<polyline class="st4" points="1.49,5.9 17.24,20.08 24.9,12.95 "/>
<path class="st5" d="M39,9c0,3.45-2.19,6.39-5.25,7.51c-0.46,0.17-0.93,0.29-1.42,0.37C31.91,16.96,31.45,17,31,17
	c-0.35,0-0.69-0.02-1.02-0.07C26.05,16.43,23,13.06,23,9c0-1.45,0.39-2.83,1.08-4c1.39-2.39,3.96-4,6.92-4C35.41,1,39,4.59,39,9z"/>
<g>
	<line class="st6" x1="28.06" y1="9" x2="33.94" y2="9"/>
	<line class="st6" x1="31" y1="6.06" x2="31" y2="11.94"/>
</g>
</svg>
